assets/icons/ic-joyce.svg

<svg width="20" height="20" viewBox="0 0 20 20" fill="none" xmlns="http://www.w3.org/2000/svg">
<path d="M18.2635 9.65121C18.3648 5.30508 14.7692 1.68892 10.2325 1.5743C5.69583 1.45967 1.93602 4.88997 1.83474 9.23611C1.73347 13.5822 5.32908 17.1984 9.86576 17.313C14.4024 17.4277 18.1622 13.9973 18.2635 9.65121Z" fill="#37352F" stroke="#37352F" stroke-width="0.5" stroke-linecap="round" stroke-linejoin="round"/>
<path d="M10.7997 4.6012H9.27587C5.5547 4.6012 2.53809 7.74239 2.53809 11.6173C2.53809 15.4921 5.5547 18.6333 9.27587 18.6333H10.7997C14.5209 18.6333 17.5375 15.4921 17.5375 11.6173C17.5375 7.74239 14.5209 4.6012 10.7997 4.6012Z" fill="white" stroke="#37352F" stroke-linecap="round" stroke-linejoin="round"/>
<path d="M2.35835 9.65716C2.35835 9.65716 8.5583 4.99016 17.8358 9.65716C17.8358 9.57938 17.5818 7.10587 17.5818 7.10587L15.5949 4.63235L10.8889 3.49671C10.8889 3.49671 8.28938 3.24781 8.11011 3.31004C7.93083 3.37226 5.03255 4.02564 4.94291 4.11898L3.29954 5.47241L2.53763 6.9503L1.91016 9.2838L2.11931 9.65716H2.35835Z" fill="#37352F" stroke="#37352F" stroke-width="0.5" stroke-linecap="round" stroke-linejoin="round"/>
<path d="M6.74112 13.9023C8.09427 13.9023 9.19122 12.76 9.19122 11.351C9.19122 9.94194 8.09427 8.79968 6.74112 8.79968C5.38796 8.79968 4.29102 9.94194 4.29102 11.351C4.29102 12.76 5.38796 13.9023 6.74112 13.9023Z" stroke="#37352F" stroke-miterlimit="10"/>
<path d="M6.87523 11.9889C7.21352 11.9889 7.48775 11.7033 7.48775 11.3511C7.48775 10.9988 7.21352 10.7133 6.87523 10.7133C6.53694 10.7133 6.2627 10.9988 6.2627 11.3511C6.2627 11.7033 6.53694 11.9889 6.87523 11.9889Z" fill="#37352F"/>
<path d="M13.1894 13.9023C14.5425 13.9023 15.6395 12.76 15.6395 11.351C15.6395 9.94194 14.5425 8.79968 13.1894 8.79968C11.8362 8.79968 10.7393 9.94194 10.7393 11.351C10.7393 12.76 11.8362 13.9023 13.1894 13.9023Z" stroke="#37352F" stroke-miterlimit="10"/>
<path d="M13.0549 11.9889C13.3932 11.9889 13.6674 11.7033 13.6674 11.3511C13.6674 10.9988 13.3932 10.7133 13.0549 10.7133C12.7166 10.7133 12.4424 10.9988 12.4424 11.3511C12.4424 11.7033 12.7166 11.9889 13.0549 11.9889Z" fill="#37352F"/>
<path d="M4.34537 8.58388C4.34537 8.58388 3.1502 14.4954 4.34537 17.3578C4.39076 17.4575 4.41119 17.5675 4.40475 17.6776C4.39831 17.7877 4.36521 17.8943 4.30854 17.9875C4.25187 18.0806 4.17346 18.1574 4.08064 18.2105C3.98781 18.2636 3.88358 18.2914 3.77766 18.2912C3.18885 18.3571 2.59429 18.2454 2.06463 17.9697C1.53496 17.6939 1.09246 17.2656 0.789735 16.7356C-0.181339 14.5421 1.55166 9.03502 2.1343 7.30823L4.34537 8.58388Z" fill="#37352F" stroke="#37352F" stroke-width="0.5" stroke-linecap="round" stroke-linejoin="round"/>
<path d="M15.6543 8.58388C15.6543 8.58388 16.8345 14.4954 15.6543 17.3578C15.6089 17.4575 15.5885 17.5675 15.5949 17.6776C15.6013 17.7877 15.6344 17.8943 15.6911 17.9875C15.7478 18.0806 15.8262 18.1574 15.919 18.2105C16.0119 18.2636 16.1161 18.2914 16.222 18.2912C16.8108 18.3571 17.4054 18.2454 17.935 17.9697C18.4647 17.6939 18.9072 17.2656 19.2099 16.7356C20.181 14.5421 18.448 9.03502 17.8654 7.30823L15.6543 8.58388Z" fill="#37352F" stroke="#37352F" stroke-width="0.5" stroke-linecap="round" stroke-linejoin="round"/>
<path d="M10.5576 10.5558H9.3623V11.2758H10.5576V10.5558Z" fill="#37352F"/>
<path d="M11.2328 15.2629C11.1089 15.5218 10.9181 15.7396 10.6819 15.8918C10.4457 16.044 10.1735 16.1247 9.89568 16.1247C9.61791 16.1247 9.34564 16.044 9.10945 15.8918C8.87325 15.7396 8.6825 15.5218 8.55859 15.2629" stroke="#37352F" stroke-linecap="round" stroke-linejoin="round"/>
</svg>

<svg xmlns="http://www.w3.org/2000/svg" width="20" height="20" fill="none" xmlns:v="https://vecta.io/nano"><style><![CDATA[.B{stroke:#37352f}.C{fill:#37352f}.D{stroke-linejoin:round}.E{stroke-width:.5}.F{stroke-miterlimit:10}]]></style><g class="B"><g class="D"><path d="M18.264 9.651c.101-4.346-3.494-7.962-8.031-8.077S1.936 4.89 1.835 9.236s3.494 7.962 8.031 8.077 8.296-3.316 8.398-7.662z" class="C E"/><path d="M10.8 4.601H9.276c-3.721 0-6.738 3.141-6.738 7.016s3.017 7.016 6.738 7.016H10.8c3.721 0 6.738-3.141 6.738-7.016S14.521 4.601 10.8 4.601z" fill="#fff"/><path d="M2.358 9.657s6.2-4.667 15.477 0c0-.078-.254-2.551-.254-2.551l-1.987-2.474-4.706-1.136s-2.6-.249-2.779-.187-3.078.716-3.167.809L3.3 5.472 2.538 6.95 1.91 9.284l.209.373h.239z" class="C E"/></g><path d="M6.741 13.902c1.353 0 2.45-1.142 2.45-2.551S8.094 8.8 6.741 8.8s-2.45 1.142-2.45 2.551 1.097 2.551 2.45 2.551z" class="F"/></g><path d="M6.875 11.989c.338 0 .613-.286.613-.638s-.274-.638-.613-.638-.613.285-.613.638.274.638.613.638z" class="C"/><path d="M13.189 13.902c1.353 0 2.45-1.142 2.45-2.551S14.543 8.8 13.189 8.8s-2.45 1.142-2.45 2.551 1.097 2.551 2.45 2.551z" class="B F"/><g class="C"><path d="M13.055 11.989c.338 0 .613-.286.613-.638s-.274-.638-.613-.638-.613.285-.613.638.274.638.613.638z"/><path d="M4.345 8.584s-1.195 5.912 0 8.774c.045.1.066.21.059.32a.67.67 0 0 1-.096.31.64.64 0 0 1-.228.223.61.61 0 0 1-.303.081c-.589.066-1.183-.046-1.713-.322s-.972-.704-1.275-1.234c-.971-2.194.762-7.701 1.345-9.427l2.211 1.276zm11.309 0s1.18 5.912 0 8.774c-.045.1-.066.21-.059.32a.67.67 0 0 0 .096.31.64.64 0 0 0 .228.223.61.61 0 0 0 .303.081c.589.066 1.183-.046 1.713-.322s.972-.704 1.275-1.234c.971-2.194-.762-7.701-1.344-9.427l-2.211 1.276z" class="B D E"/><path d="M10.558 10.556H9.362v.72h1.195v-.72z"/></g><path d="M11.233 15.263c-.124.259-.315.477-.551.629a1.45 1.45 0 0 1-1.572 0c-.236-.152-.427-.37-.551-.629" stroke-linecap="round" class="B D"/></svg>
